X: 215
T:Miserere mei, Deus / Audi, auditui meo / Domine, labia mea aperies
N: Derived from Jos1803-Miserere_mei_Deus.krn
C: Josquin des Prez
%%abc-version 2.0
%%abcx-abcm2ps-target-version 5.9.1 (29 Sep 2008)
%%abc-creator hum2abc beta
%%abcx-conversion-date 2019/02/12 16:15:48
%%abc-edited-by Jesse Rodin
%%abc-edited-by Jesse Rodin; Victoria Chang 2011/05/17
%%abcx-initial-encoding-date 2011/06/09/
%%humdrum-veritas 366581858
%%humdrum-veritas-data 35017575
%%linebreak <none>
%%barnumbers 0
L: 1/4
M: 2/1
Q: 1/2=120
V: 1 clef=treble
V: 2 clef=treble-8
V: 3 clef=treble-8
V: 4 clef=treble-8
V: 5 clef=bass
K: C
[V:1] z8 | 
[V:2] z8 | 
[V:3] z8 | 
[V:4] B6B2 | 
[V:5] z8 | 
[V:1] z8 | 
[V:2] z8 | 
[V:3] z8 | 
[V:4] B4B4 | 
[V:5] z8 | 
[V:1] z8 | 
[V:2] z8 | 
[V:3] z8 | 
[V:4] B4B4 | 
[V:5] E,6E,2 | 
[V:1] z8 | 
[V:2] z8 | 
[V:3] z8 | 
[V:4] c8 | 
[V:5] E,4E,4 | 
[V:1] z8 | 
[V:2] z8 | 
[V:3] z8 | 
[V:4] B4e4 | 
[V:5] E,4E,4 | 
[V:1] z8 | 
[V:2] z8 | 
[V:3] z8 | 
[V:4] d2c4BA | 
[V:5] F,8 | 
[V:1] B6B2 | 
[V:2] z8 | 
[V:3] z8 | 
[V:4] G8- | 
[V:5] E,8- | 
[V:1] B4B4 | 
[V:2] z8 | 
[V:3] z8 | 
[V:4] G8 | 
[V:5] E,8 | 
[V:1] B4B4 | 
[V:2] e6e2 | 
[V:3] z8 | 
[V:4] z8 | 
[V:5] z8 | 
[V:1] c8 | 
[V:2] e4e4 | 
[V:3] z8 | 
[V:4] z8 | 
[V:5] z8 | 
[V:1] B8 | 
[V:2] e4e4 | 
[V:3] z8 | 
[V:4] z8 | 
[V:5] z8 | 
[V:1] z4A4 | 
[V:2] f8 | 
[V:3] z8 | 
[V:4] z8 | 
[V:5] z8 | 
[V:1] B4c4 | 
[V:2] e8 | 
[V:3] z8 | 
[V:4] z8 | 
[V:5] z8 | 
[V:1] d8 | 
[V:2] z4d4 | 
[V:3] z8 | 
[V:4] z8 | 
[V:5] z8 | 
[V:1] c4A4 | 
[V:2] e4f4 | 
[V:3] z8 | 
[V:4] z8 | 
[V:5] z8 | 
[V:1] B4G4 | 
[V:2] g8 | 
[V:3] z8 | 
[V:4] z8 | 
[V:5] z8 | 
[V:1] A4B4 | 
[V:2] f4d4 | 
[V:3] z8 | 
[V:4] z8 | 
[V:5] z8 | 
[V:1] c6BA | 
[V:2] e4f4 | 
[V:3] z8 | 
[V:4] z8 | 
[V:5] z8 | 
[V:1] c2B2G3F | 
[V:2] g3fede2- | 
[V:3] e6e2 | 
[V:4] z4B4- | 
[V:5] E,6E,2 | 
[V:1] G2A2^G2AG | 
[V:2] e2dcB4 | 
[V:3] e4e4 | 
[V:4] B2B2B2B2 | 
[V:5] E,4E,4 | 
[V:1] A8- | 
[V:2] A8- | 
[V:3] e4e4 | 
[V:4] c4c4 | 
[V:5] A,,4A,,4 | 
[V:1] A8- | 
[V:2] A8 | 
[V:3] f8 | 
[V:4] d8 | 
[V:5] D,8 | 
[V:1] A8 | 
[V:2] z8 | 
[V:3] e8- | 
[V:4] c3BAGA2- | 
[V:5] A,,8- | 
[V:1] z8 | 
[V:2] c8 | 
[V:3] e8 | 
[V:4] A2GFE2A2 | 
[V:5] A,,8 | 
[V:1] z8 | 
[V:2] d4e4- | 
[V:3] z8 | 
[V:4] F2G4E2 | 
[V:5] z8 | 
[V:1] G8 | 
[V:2] e4e4 | 
[V:3] z8 | 
[V:4] E8 | 
[V:5] z8 | 
[V:1] A4B4- | 
[V:2] c4d4 | 
[V:3] z8 | 
[V:4] z8 | 
[V:5] z8 | 
[V:1] B4B4 | 
[V:2] e6e2 | 
[V:3] z8 | 
[V:4] z8 | 
[V:5] z8 | 
[V:1] G4A4 | 
[V:2] e4c4 | 
[V:3] z8 | 
[V:4] z8 | 
[V:5] z8 | 
[V:1] B6B2 | 
[V:2] d4e4- | 
[V:3] z8 | 
[V:4] z8 | 
[V:5] z8 | 
[V:1] B2G2A2B2 | 
[V:2] e2e2d4 | 
[V:3] z8 | 
[V:4] z8 | 
[V:5] z8 | 
[V:1] G2c2B2A2- | 
[V:2] e3cdef2- | 
[V:3] z8 | 
[V:4] z8 | 
[V:5] z8 | 
[V:1] A2G2F4 | 
[V:2] fee4d2 | 
[V:3] z8 | 
[V:4] z8 | 
[V:5] z8 | 
[V:1] EFGAB2c2- | 
[V:2] e4z4 | 
[V:3] z8 | 
[V:4] z8 | 
[V:5] z8 | 
[V:1] c2BAG4 | 
[V:2] e4e4 | 
[V:3] z8 | 
[V:4] z8 | 
[V:5] z8 | 
[V:1] E4E4 | 
[V:2] z4z2e2 | 
[V:3] z8 | 
[V:4] z8 | 
[V:5] z8 | 
[V:1] z2G2A2B2 | 
[V:2] e2e2d4 | 
[V:3] z8 | 
[V:4] z8 | 
[V:5] z8 | 
[V:1] c3BA2G2 | 
[V:2] c2ABcde2- | 
[V:3] z8 | 
[V:4] z8 | 
[V:5] z8 | 
[V:1] F2D2E4 | 
[V:2] edd4^c2 | 
[V:3] z8 | 
[V:4] z8 | 
[V:5] z8 | 
[V:1] D4A4- | 
[V:2] d4D4 | 
[V:3] d6d2 | 
[V:4] F6F2 | 
[V:5] D,6D,2 | 
[V:1] A2A2B4 | 
[V:2] A4G4 | 
[V:3] d4d4 | 
[V:4] F4G4 | 
[V:5] D,4G,,4 | 
[V:1] A2d2d2d2- | 
[V:2] A4B4 | 
[V:3] d4d4 | 
[V:4] F4D4 | 
[V:5] D,4B,,4 | 
[V:1] d2^cBc4 | 
[V:2] c4A4- | 
[V:3] e8 | 
[V:4] A8 | 
[V:5] A,,8 | 
[V:1] d8- | 
[V:2] A2F2F4 | 
[V:3] d8- | 
[V:4] F4z4 | 
[V:5] D,8 | 
[V:1] d8 | 
[V:2] z4F4 | 
[V:3] d8 | 
[V:4] f8 | 
[V:5] z4D,4 | 
[V:1] B4c4 | 
[V:2] G4A4 | 
[V:3] z8 | 
[V:4] e4c4 | 
[V:5] E,4A,,4 | 
[V:1] d4B4 | 
[V:2] F4G4 | 
[V:3] z8 | 
[V:4] f4e4 | 
[V:5] D,4E,4 | 
[V:1] c4d2A2 | 
[V:2] A4z2F2 | 
[V:3] z8 | 
[V:4] c4z2f2 | 
[V:5] A,,4z2D,2 | 
[V:1] c2c2A2c2- | 
[V:2] G2A2F2G2 | 
[V:3] z8 | 
[V:4] e2c2f2e2 | 
[V:5] C,2A,,2D,2C,2 | 
[V:1] cBA3^GG^F | 
[V:2] A3cB4 | 
[V:3] z8 | 
[V:4] c2e3de2 | 
[V:5] A,,4E,4 | 
[V:1] A8 | 
[V:2] A4z2A2 | 
[V:3] z8 | 
[V:4] c4z2c2 | 
[V:5] A,,8 | 
[V:1] z8 | 
[V:2] B2c2d4 | 
[V:3] z8 | 
[V:4] d2e2f4 | 
[V:5] z4z2D,2 | 
[V:1] z8 | 
[V:2] c2A2_B4 | 
[V:3] z8 | 
[V:4] e2d4c_B | 
[V:5] E,2F,2G,4 | 
[V:1] z4z2A2 | 
[V:2] A3FG2F2 | 
[V:3] z8 | 
[V:4] c2d2c2dc | 
[V:5] F,4E,2D,2- | 
[V:1] B2c2d4 | 
[V:2] D2E4D2 | 
[V:3] z8 | 
[V:4] BAA4^G2 | 
[V:5] D,2C,2B,,4 | 
[V:1] c4B2A2- | 
[V:2] E4z4 | 
[V:3] z8 | 
[V:4] A2c2d2f2- | 
[V:5] A,,4z4 | 
[V:1] A2G2F4 | 
[V:2] z8 | 
[V:3] z8 | 
[V:4] fee4d2 | 
[V:5] z8 | 
[V:1] E8 | 
[V:2] z8 | 
[V:3] c6c2 | 
[V:4] e4z4 | 
[V:5] z8 | 
[V:1] z8 | 
[V:2] A6A2 | 
[V:3] c4c4 | 
[V:4] e6d2 | 
[V:5] z4A,4- | 
[V:1] z8 | 
[V:2] A4A4 | 
[V:3] c4c4 | 
[V:4] c2B2A2G2 | 
[V:5] A,2G,2F,2E,2 | 
[V:1] z8 | 
[V:2] A4^G4 | 
[V:3] d8 | 
[V:4] F2E2D4 | 
[V:5] D,2C,2B,,4 | 
[V:1] z4A4- | 
[V:2] A8 | 
[V:3] c8- | 
[V:4] E4z4 | 
[V:5] A,,8- | 
[V:1] A2A2A2E2 | 
[V:2] E8 | 
[V:3] c8 | 
[V:4] A6A2 | 
[V:5] A,,8 | 
[V:1] F2G2A2DE | 
[V:2] z8 | 
[V:3] z8 | 
[V:4] A2E2F2G2 | 
[V:5] z8 | 
[V:1] FGA4GF | 
[V:2] z8 | 
[V:3] z8 | 
[V:4] A2DEFGA2- | 
[V:5] z8 | 
[V:1] E2A2G2c2- | 
[V:2] z8 | 
[V:3] z8 | 
[V:4] A2GFE2A2 | 
[V:5] z8 | 
[V:1] cBA4^G2 | 
[V:2] z8 | 
[V:3] z8 | 
[V:4] c2d2B4 | 
[V:5] z8 | 
[V:1] A2c2c2c2 | 
[V:2] z8 | 
[V:3] z8 | 
[V:4] A8 | 
[V:5] z2A,2A,2A,2 | 
[V:1] B2c4BA | 
[V:2] z8 | 
[V:3] z8 | 
[V:4] z2e2c2d2 | 
[V:5] G,2A,4G,F, | 
[V:1] G2G2G2G2 | 
[V:2] z2e2e2e2 | 
[V:3] z8 | 
[V:4] e4E4 | 
[V:5] E,4z4 | 
[V:1] F2G2E4 | 
[V:2] d2e4dc | 
[V:3] z8 | 
[V:4] z8 | 
[V:5] z8 | 
[V:1] DEFGAEG2 | 
[V:2] B2d2c2B2 | 
[V:3] z8 | 
[V:4] z8 | 
[V:5] z8 | 
[V:1] FEE4D2 | 
[V:2] A2G2F4 | 
[V:3] z8 | 
[V:4] z8 | 
[V:5] z8 | 
[V:1] E8 | 
[V:2] E8 | 
[V:3] B6B2 | 
[V:4] z8 | 
[V:5] z4G,4- | 
[V:1] z4G4- | 
[V:2] G6G2 | 
[V:3] B4B4 | 
[V:4] z8 | 
[V:5] G,2G,2G,2G,2 | 
[V:1] G2G2G2G2 | 
[V:2] G2G2E3F | 
[V:3] B4B4 | 
[V:4] G3GG2G2 | 
[V:5] E,3F,G,4 | 
[V:1] G3FE4 | 
[V:2] G4G4 | 
[V:3] c8 | 
[V:4] E3FG4 | 
[V:5] C,8 | 
[V:1] D8 | 
[V:2] z4d4- | 
[V:3] B8- | 
[V:4] G8 | 
[V:5] G,,8- | 
[V:1] z8 | 
[V:2] d2d2d2d2 | 
[V:3] B8 | 
[V:4] G6G2 | 
[V:5] G,,8 | 
[V:1] z8 | 
[V:2] e4c3A | 
[V:3] z8 | 
[V:4] G2G2A4 | 
[V:5] z8 | 
[V:1] z8 | 
[V:2] A4z2d2 | 
[V:3] z8 | 
[V:4] F3DD4 | 
[V:5] z8 | 
[V:1] z8 | 
[V:2] d2d2d2d2 | 
[V:3] z8 | 
[V:4] z2G2G2G2 | 
[V:5] z8 | 
[V:1] z8 | 
[V:2] e4c3A | 
[V:3] z8 | 
[V:4] G2G2A4 | 
[V:5] z8 | 
[V:1] z8 | 
[V:2] A4A2d2 | 
[V:3] z8 | 
[V:4] F3DD2D2 | 
[V:5] z8 | 
[V:1] z8 | 
[V:2] B2c2d2B2 | 
[V:3] z8 | 
[V:4] G2E2F2G2 | 
[V:5] z8 | 
[V:1] z8 | 
[V:2] z2e2e2c2 | 
[V:3] z8 | 
[V:4] E2z2A2A2 | 
[V:5] z8 | 
[V:1] z8 | 
[V:2] d2e2c3A | 
[V:3] z8 | 
[V:4] F2G2A2F2- | 
[V:5] z8 | 
[V:1] z8 | 
[V:2] A2d2B2G2 | 
[V:3] z8 | 
[V:4] FDD2G2E2 | 
[V:5] z8 | 
[V:1] z8 | 
[V:2] c3de2f2- | 
[V:3] z8 | 
[V:4] C2c3BAG | 
[V:5] z8 | 
[V:1] z8 | 
[V:2] fed3^c^cB | 
[V:3] z8 | 
[V:4] F2G2E4 | 
[V:5] z8 | 
[V:1] z8 | 
[V:2] d4z4 | 
[V:3] A6A2 | 
[V:4] D4z4 | 
[V:5] z4D,4- | 
[V:1] z4D4 | 
[V:2] z8 | 
[V:3] A4A4 | 
[V:4] F6F2 | 
[V:5] D,2D,2D,4 | 
[V:1] E4F4 | 
[V:2] z4d4- | 
[V:3] A4A4 | 
[V:4] E4D4 | 
[V:5] C,4D,4 | 
[V:1] G4z2D2 | 
[V:2] d2d2d2d2 | 
[V:3] B8 | 
[V:4] G4G4 | 
[V:5] G,,8 | 
[V:1] F3GA3B | 
[V:2] d2d2d4 | 
[V:3] A8- | 
[V:4] F2D2F4 | 
[V:5] D,8 | 
[V:1] c8 | 
[V:2] c8 | 
[V:3] A8 | 
[V:4] E8 | 
[V:5] A,,8 | 
[V:1] z4A4- | 
[V:2] e6e2 | 
[V:3] z8 | 
[V:4] z4c4- | 
[V:5] z4A,,4- | 
[V:1] A2A2A4 | 
[V:2] e4e4 | 
[V:3] z8 | 
[V:4] c2c2c4 | 
[V:5] A,,2A,,2A,,4 | 
[V:1] G4G4 | 
[V:2] z4e4 | 
[V:3] z8 | 
[V:4] B4B4 | 
[V:5] E,4E,4 | 
[V:1] G4c4- | 
[V:2] e4e4 | 
[V:3] z8 | 
[V:4] B4e4- | 
[V:5] E,4C,4- | 
[V:1] c2c2c2c2 | 
[V:2] c4g4- | 
[V:3] z8 | 
[V:4] e2e2e2e2 | 
[V:5] C,2C,2C,2C,2 | 
[V:1] B4B4 | 
[V:2] g2g2g2d2 | 
[V:3] z8 | 
[V:4] d4B4 | 
[V:5] G,4G,4 | 
[V:1] A4A4 | 
[V:2] f4f4 | 
[V:3] z8 | 
[V:4] c4d4 | 
[V:5] F,4D,4 | 
[V:1] G8 | 
[V:2] e4z2e2 | 
[V:3] z8 | 
[V:4] B8 | 
[V:5] E,4z2E,2 | 
[V:1] z4A4 | 
[V:2] c4d4 | 
[V:3] z8 | 
[V:4] z4z2A2 | 
[V:5] F,4F,4 | 
[V:1] G2E2F4 | 
[V:2] e4z2A2 | 
[V:3] z8 | 
[V:4] B2c2d4 | 
[V:5] E,4z2D,2 | 
[V:1] E2c2B2G2 | 
[V:2] G2A2E4 | 
[V:3] z8 | 
[V:4] c4z2B2 | 
[V:5] E,2F,2G,4 | 
[V:1] A4G4 | 
[V:2] A4z4 | 
[V:3] z8 | 
[V:4] c2d2e4 | 
[V:5] F,4z2E,2 | 
[V:1] z4z2C2 | 
[V:2] z8 | 
[V:3] z8 | 
[V:4] d2B2c4 | 
[V:5] F,2G,2A,4 | 
[V:1] D2E3DDC | 
[V:2] z8 | 
[V:3] z8 | 
[V:4] B4z4 | 
[V:5] G,2E,2F,4 | 
[V:1] E8 | 
[V:2] B6B2 | 
[V:3] G6G2 | 
[V:4] z8 | 
[V:5] E,8 | 
[V:1] z4B4- | 
[V:2] B4B4 | 
[V:3] G4G4 | 
[V:4] z4e4- | 
[V:5] E,6E,2 | 
[V:1] B2B2B4 | 
[V:2] B4B4 | 
[V:3] G4G4 | 
[V:4] e2e2e2e2 | 
[V:5] E,4E,4 | 
[V:1] A4c4- | 
[V:2] c8- | 
[V:3] A8 | 
[V:4] e4e4 | 
[V:5] A,,4A,,4 | 
[V:1] c2B2G4- | 
[V:2] c8 | 
[V:3] G8- | 
[V:4] e8 | 
[V:5] C,6D,2 | 
[V:1] G2A2B4 | 
[V:2] B8 | 
[V:3] G8 | 
[V:4] e8- | 
[V:5] E,8- | 
[V:1] z4G4 | 
[V:2] z4E4 | 
[V:3] z8 | 
[V:4] e8 | 
[V:5] E,8 | 
[V:1] A4B4 | 
[V:2] A4G4 | 
[V:3] z8 | 
[V:4] c4d4 | 
[V:5] z8 | 
[V:1] G4A4- | 
[V:2] E4F4- | 
[V:3] z8 | 
[V:4] e4c4 | 
[V:5] z8 | 
[V:1] A2A2B4 | 
[V:2] F2F2G4 | 
[V:3] z8 | 
[V:4] d6d2 | 
[V:5] z8 | 
[V:1] G4A4- | 
[V:2] E4F4- | 
[V:3] z8 | 
[V:4] e4c4 | 
[V:5] z8 | 
[V:1] A2A2B4 | 
[V:2] F2F2G4 | 
[V:3] z8 | 
[V:4] d6d2 | 
[V:5] z8 | 
[V:1] G4A4 | 
[V:2] E4A4 | 
[V:3] z8 | 
[V:4] e4c4 | 
[V:5] z8 | 
[V:1] B4G4 | 
[V:2] G4E4 | 
[V:3] z8 | 
[V:4] d4e4 | 
[V:5] z8 | 
[V:1] A6A2 | 
[V:2] F6F2 | 
[V:3] z8 | 
[V:4] c4d4- | 
[V:5] z8 | 
[V:1] B4G4 | 
[V:2] G4E4 | 
[V:3] z8 | 
[V:4] d2d2e4 | 
[V:5] z8 | 
[V:1] A6A2 | 
[V:2] F6F2 | 
[V:3] z8 | 
[V:4] c4d4- | 
[V:5] z8 | 
[V:1] A2A2A4 | 
[V:2] F2F2D4 | 
[V:3] z8 | 
[V:4] d2d2d2d2 | 
[V:5] z8 | 
[V:1] B6G2 | 
[V:2] G6E2 | 
[V:3] z8 | 
[V:4] d4e4- | 
[V:5] z8 | 
[V:1] G4A4- | 
[V:2] E4F4- | 
[V:3] z8 | 
[V:4] e2c2c4 | 
[V:5] z8 | 
[V:1] A2A2B4 | 
[V:2] F2F2G4 | 
[V:3] z8 | 
[V:4] d6d2 | 
[V:5] z8 | 
[V:1] G4A4- | 
[V:2] E4F4- | 
[V:3] z8 | 
[V:4] e4c4 | 
[V:5] z8 | 
[V:1] A2GFG2A2- | 
[V:2] F2EDE2D2 | 
[V:3] z8 | 
[V:4] d2f2e2f2- | 
[V:5] z8 | 
[V:1] A2F2E4 | 
[V:2] F3GA4 | 
[V:3] z8 | 
[V:4] fed4^c2 | 
[V:5] z8 | 
[V:1] D4z4 | 
[V:2] z4A4- | 
[V:3] F6F2 | 
[V:4] d8 | 
[V:5] D,6D,2 | 
[V:1] A6A2 | 
[V:2] A2A2A4 | 
[V:3] F4F4 | 
[V:4] z4d4- | 
[V:5] D,4D,4 | 
[V:1] A4A4 | 
[V:2] D4A4 | 
[V:3] F4F4 | 
[V:4] d2d2d4 | 
[V:5] D,4D,4 | 
[V:1] B4B4 | 
[V:2] G4D4- | 
[V:3] G8 | 
[V:4] d4d2d2 | 
[V:5] G,,8 | 
[V:1] A8 | 
[V:2] D2E2F2G2 | 
[V:3] F8- | 
[V:4] d8 | 
[V:5] D,8- | 
[V:1] A8 | 
[V:2] A8 | 
[V:3] F8 | 
[V:4] d4z4 | 
[V:5] D,8- | 
[V:1] z4D4 | 
[V:2] z8 | 
[V:3] z8 | 
[V:4] d4f4 | 
[V:5] D,8 | 
[V:1] F4D4 | 
[V:2] z8 | 
[V:3] z8 | 
[V:4] d4f3e | 
[V:5] z8 | 
[V:1] E3FGAB2- | 
[V:2] z8 | 
[V:3] z8 | 
[V:4] c2g3fed | 
[V:5] z8 | 
[V:1] BAA4^G2 | 
[V:2] z8 | 
[V:3] z8 | 
[V:4] e2c2B4 | 
[V:5] z8 | 
[V:1] A8- | 
[V:2] z4D4 | 
[V:3] z8 | 
[V:4] A8- | 
[V:5] D,4F,4 | 
[V:1] A8 | 
[V:2] F4D4 | 
[V:3] z8 | 
[V:4] A8 | 
[V:5] D,4F,3E, | 
[V:1] z8 | 
[V:2] E3FGAB2- | 
[V:3] z8 | 
[V:4] z8 | 
[V:5] C,2G,3F,E,D, | 
[V:1] z4d4 | 
[V:2] BAA4^G2 | 
[V:3] z8 | 
[V:4] z8 | 
[V:5] E,2C,2B,,4 | 
[V:1] c4A4 | 
[V:2] A2E2F4 | 
[V:3] z8 | 
[V:4] z8 | 
[V:5] A,,4D,4 | 
[V:1] z2c4BA | 
[V:2] E4c4 | 
[V:3] z8 | 
[V:4] z4A4 | 
[V:5] C,4A,,4 | 
[V:1] B2G4c2- | 
[V:2] d4e4 | 
[V:3] z8 | 
[V:4] G4E4 | 
[V:5] z4C,4- | 
[V:1] cBAGF2A2- | 
[V:2] z2e2f3e | 
[V:3] z8 | 
[V:4] z4A4- | 
[V:5] C,2C,2D,4 | 
[V:1] A2GFE4 | 
[V:2] c2d4^c2 | 
[V:3] z8 | 
[V:4] A2A2A4 | 
[V:5] A,,4z2A,,2 | 
[V:1] D4z2A2 | 
[V:2] d3cA2f2 | 
[V:3] z8 | 
[V:4] D8 | 
[V:5] B,,2C,2D,4 | 
[V:1] B2c2d4 | 
[V:2] e2e2d3c | 
[V:3] z8 | 
[V:4] z8 | 
[V:5] z2A,,2B,,2C,2 | 
[V:1] z2A2B2c2 | 
[V:2] A2dcBAA2- | 
[V:3] z8 | 
[V:4] F6E2 | 
[V:5] D,6C,2 | 
[V:1] d4c4 | 
[V:2] A2^G2A2E2 | 
[V:3] z8 | 
[V:4] D4E2A2 | 
[V:5] B,,4A,,4 | 
[V:1] B2A4GF | 
[V:2] G2F2D4 | 
[V:3] z8 | 
[V:4] B2c2d4 | 
[V:5] z8 | 
[V:1] E4D2E2 | 
[V:2] A4z4 | 
[V:3] z8 | 
[V:4] c4B2A2- | 
[V:5] z4z2C,2 | 
[V:1] F2E4D2 | 
[V:2] z4D4 | 
[V:3] z8 | 
[V:4] A2G2A4 | 
[V:5] D,2E,2F,4 | 
[V:1] E4z4 | 
[V:2] G6E2 | 
[V:3] z8 | 
[V:4] B6G2 | 
[V:5] E,8 | 
[V:1] G6G2 | 
[V:2] E4e4- | 
[V:3] E6E2 | 
[V:4] G8 | 
[V:5] z8 | 
[V:1] G4G4 | 
[V:2] e4e4 | 
[V:3] E4E4 | 
[V:4] z4c4- | 
[V:5] C,6C,2 | 
[V:1] G2G2G4 | 
[V:2] e4e4 | 
[V:3] E4E4 | 
[V:4] c2c2c2c2 | 
[V:5] C,4C,4 | 
[V:1] F2DEFGA2- | 
[V:2] d4d4 | 
[V:3] F8 | 
[V:4] A4A4 | 
[V:5] D,4D,4 | 
[V:1] ABc4BA | 
[V:2] c8 | 
[V:3] E8- | 
[V:4] A8 | 
[V:5] A,,8 | 
[V:1] B4G4 | 
[V:2] B8- | 
[V:3] E8- | 
[V:4] G8- | 
[V:5] E,8- | 
[V:1] G8 ||  
[V:2] B8 ||  
[V:3] E8 ||  
[V:4] G8 ||  
[V:5] E,8 ||  
[V:1] [M:2/1]z8 | 
[V:2] [M:2/1]z8 | 
[V:3] [M:2/1]z8 | 
[V:4] [M:2/1]E4E4 | 
[V:5] [M:2/1]z8 | 
[V:1] z8 | 
[V:2] z8 | 
[V:3] z8 | 
[V:4] z8 | 
[V:5] A,,4A,,4 | 
[V:1] z8 | 
[V:2] z8 | 
[V:3] z8 | 
[V:4] E4E4 | 
[V:5] z8 | 
[V:1] z8 | 
[V:2] z8 | 
[V:3] z8 | 
[V:4] F2E2A4 | 
[V:5] A,,4A,,4 | 
[V:1] z8 | 
[V:2] z8 | 
[V:3] z8 | 
[V:4] G2A4A2 | 
[V:5] B,,2A,,2D,4 | 
[V:1] z8 | 
[V:2] z8 | 
[V:3] z8 | 
[V:4] A2A2B2A2 | 
[V:5] C,2D,4D,2 | 
[V:1] z8 | 
[V:2] z8 | 
[V:3] z8 | 
[V:4] dcBAG2A2 | 
[V:5] D,2D,2E,2A,,B,, | 
[V:1] z8 | 
[V:2] z8 | 
[V:3] z8 | 
[V:4] E3GF4 | 
[V:5] C,D,E,4D,2 | 
[V:1] z8 | 
[V:2] z8 | 
[V:3] z8 | 
[V:4] E2B2c2B2 | 
[V:5] E,8 | 
[V:1] z8 | 
[V:2] z8 | 
[V:3] z8 | 
[V:4] e4d2e2- | 
[V:5] z2E,2F,2E,2 | 
[V:1] z8 | 
[V:2] z8 | 
[V:3] z8 | 
[V:4] e2dcB2c2 | 
[V:5] A,4G,2A,2- | 
[V:1] z8 | 
[V:2] z8 | 
[V:3] z8 | 
[V:4] A2c4BA | 
[V:5] A,2G,F,E,2F,2 | 
[V:1] z8 | 
[V:2] z8 | 
[V:3] z8 | 
[V:4] B2c4BA | 
[V:5] G,2A,2F,4 | 
[V:1] z2E2G2E2 | 
[V:2] z8 | 
[V:3] z8 | 
[V:4] c4B4 | 
[V:5] E,8 | 
[V:1] G3AB2c2 | 
[V:2] z2e2g2e2 | 
[V:3] E3EE2E2 | 
[V:4] z8 | 
[V:5] z8 | 
[V:1] B2c4BA | 
[V:2] gfedc2d2 | 
[V:3] E2E2F4 | 
[V:4] z8 | 
[V:5] z8 | 
[V:1] G8 | 
[V:2] e2c2B4 | 
[V:3] E8 | 
[V:4] z4e4 | 
[V:5] z4E,4 | 
[V:1] z4G4 | 
[V:2] z2A2B4 | 
[V:3] z8 | 
[V:4] d4e4 | 
[V:5] F,4E,4 | 
[V:1] A4G4 | 
[V:2] A2d2B2c2 | 
[V:3] z8 | 
[V:4] z4z2e2 | 
[V:5] z2D,2E,2E,2 | 
[V:1] z2A2G2G2 | 
[V:2] A4B4 | 
[V:3] z8 | 
[V:4] c2d2e4 | 
[V:5] F,4E,4 | 
[V:1] c4B4 | 
[V:2] z2A2B2G2 | 
[V:3] z8 | 
[V:4] c2c2d2e2 | 
[V:5] z2A,2G,2G,2 | 
[V:1] z2A2G2G2 | 
[V:2] c2d2e4 | 
[V:3] z8 | 
[V:4] A4B4 | 
[V:5] A,2F,2E,4 | 
[V:1] A2F2E4 | 
[V:2] c4z2c2 | 
[V:3] z8 | 
[V:4] A8 | 
[V:5] z4A,,4 | 
[V:1] z2D2E4 | 
[V:2] d4c4 | 
[V:3] z8 | 
[V:4] z2D2A4 | 
[V:5] B,,4A,,4 | 
[V:1] D4z2G2 | 
[V:2] f4e2e2 | 
[V:3] z8 | 
[V:4] D2F2G2E2 | 
[V:5] D,4C,2C,2 | 
[V:1] F2D2E4 | 
[V:2] d4c4 | 
[V:3] z8 | 
[V:4] F4E2A2- | 
[V:5] D,4A,,4 | 
[V:1] D2F2E2F2- | 
[V:2] A3Bc2F2- | 
[V:3] z8 | 
[V:4] A2GFG2A2 | 
[V:5] D,4C,2A,,2 | 
[V:1] F2ED^CDEC | 
[V:2] F2G2A4 | 
[V:3] z8 | 
[V:4] D4E4 | 
[V:5] B,,4A,,4 | 
[V:1] D8- | 
[V:2] A8 | 
[V:3] z8 | 
[V:4] D4A4- | 
[V:5] z4D,4- | 
[V:1] D8 | 
[V:2] z8 | 
[V:3] F3FF2F2 | 
[V:4] A2A2A2A2 | 
[V:5] D,2D,2D,2D,2 | 
[V:1] z8 | 
[V:2] z8 | 
[V:3] F2F2G4 | 
[V:4] A2A2_B4 | 
[V:5] D,2D,2G,,4 | 
[V:1] z4A4 | 
[V:2] z8 | 
[V:3] F8 | 
[V:4] A6F2 | 
[V:5] D,8 | 
[V:1] B4A2d2- | 
[V:2] z4d4 | 
[V:3] z8 | 
[V:4] G3FD4 | 
[V:5] z8 | 
[V:1] d2c2B4 | 
[V:2] e4d2g2- | 
[V:3] z8 | 
[V:4] z8 | 
[V:5] z8 | 
[V:1] A4G2A2- | 
[V:2] g2f2e2f2- | 
[V:3] z8 | 
[V:4] z8 | 
[V:5] z8 | 
[V:1] AGFEF4 | 
[V:2] fedcd4 | 
[V:3] z8 | 
[V:4] z8 | 
[V:5] z8 | 
[V:1] E8 | 
[V:2] c4z2c2 | 
[V:3] z8 | 
[V:4] z8 | 
[V:5] z8 | 
[V:1] z2D2A3A | 
[V:2] f3ff4 | 
[V:3] z8 | 
[V:4] z8 | 
[V:5] z8 | 
[V:1] G4F4 | 
[V:2] e4d4 | 
[V:3] z8 | 
[V:4] z8 | 
[V:5] z8 | 
[V:1] E4z2D2 | 
[V:2] z2c2f4 | 
[V:3] z8 | 
[V:4] z8 | 
[V:5] z8 | 
[V:1] G4F4 | 
[V:2] e4z2d2 | 
[V:3] z8 | 
[V:4] z8 | 
[V:5] z8 | 
[V:1] z2E2D2A2 | 
[V:2] c2g2f2d2 | 
[V:3] z8 | 
[V:4] z8 | 
[V:5] z8 | 
[V:1] G2E2F4 | 
[V:2] e4d4 | 
[V:3] z8 | 
[V:4] z8 | 
[V:5] z8 | 
[V:1] E4G4- | 
[V:2] z4e4- | 
[V:3] z8 | 
[V:4] z8 | 
[V:5] z4E,4- | 
[V:1] G2G2G2G2 | 
[V:2] e2e2e2e2 | 
[V:3] G3GG2G2 | 
[V:4] E6E2 | 
[V:5] E,2E,2E,2E,2 | 
[V:1] G2G2c4- | 
[V:2] e2e2e4- | 
[V:3] G2G2A4 | 
[V:4] E2E2E2E2 | 
[V:5] E,4A,,3B,, | 
[V:1] c4B4 | 
[V:2] e4d4- | 
[V:3] G8 | 
[V:4] E3FG4 | 
[V:5] C,4G,,4 | 
[V:1] z8 | 
[V:2] d4z4 | 
[V:3] z8 | 
[V:4] D6E2 | 
[V:5] z4D,4- | 
[V:1] z8 | 
[V:2] z8 | 
[V:3] z8 | 
[V:4] F2G2A4 | 
[V:5] D,2E,2F,2G,2 | 
[V:1] z8 | 
[V:2] z8 | 
[V:3] z8 | 
[V:4] D2c2d2A2 | 
[V:5] A,4D,2F,2 | 
[V:1] z8 | 
[V:2] z8 | 
[V:3] z8 | 
[V:4] c4B4 | 
[V:5] E,2C,2G,4 | 
[V:1] z8 | 
[V:2] z8 | 
[V:3] z8 | 
[V:4] A4z2G2 | 
[V:5] F,4E,4 | 
[V:1] z8 | 
[V:2] z8 | 
[V:3] z8 | 
[V:4] A3cB2A2 | 
[V:5] z2C,2D,3F, | 
[V:1] z8 | 
[V:2] z8 | 
[V:3] z8 | 
[V:4] c4B4 | 
[V:5] E,2C,2D,2E,2 | 
[V:1] z8 | 
[V:2] z8 | 
[V:3] z8 | 
[V:4] A2E2F2G2 | 
[V:5] A,,2C,2D,2E,2 | 
[V:1] z8 | 
[V:2] z8 | 
[V:3] z8 | 
[V:4] AGAB^cde^c | 
[V:5] F,3D,E,4 | 
[V:1] z8 | 
[V:2] d6d2 | 
[V:3] z8 | 
[V:4] d4z4 | 
[V:5] D,4z4 | 
[V:1] z8 | 
[V:2] d4d4 | 
[V:3] A3AA2A2 | 
[V:4] F3FF2F2 | 
[V:5] D,3D,D,2D,2 | 
[V:1] z8 | 
[V:2] d4d4 | 
[V:3] A2A2B4 | 
[V:4] F2F2G4 | 
[V:5] D,2D,2G,,4 | 
[V:1] z8 | 
[V:2] c6A2 | 
[V:3] A8 | 
[V:4] E4c4- | 
[V:5] A,,8 | 
[V:1] A8 | 
[V:2] A4z2f2- | 
[V:3] z8 | 
[V:4] c2c2c4 | 
[V:5] F,6F,2 | 
[V:1] A4A4 | 
[V:2] f2f2f4 | 
[V:3] z8 | 
[V:4] A2A2d4- | 
[V:5] F,4D,2D,2 | 
[V:1] B4B4 | 
[V:2] d2d2g4- | 
[V:3] z8 | 
[V:4] d2d2d4 | 
[V:5] G,6G,2 | 
[V:1] B6G2 | 
[V:2] g2g2g4 | 
[V:3] z8 | 
[V:4] B6c2 | 
[V:5] G,4E,2E,2 | 
[V:1] G4G2G2 | 
[V:2] G2G2E2G2- | 
[V:3] z8 | 
[V:4] B2c4BA | 
[V:5] E,4C,2E,2- | 
[V:1] B2c2d4 | 
[V:2] G2FED4 | 
[V:3] z8 | 
[V:4] G2A4^G2 | 
[V:5] E,2D,C,B,,4 | 
[V:1] c4A4 | 
[V:2] E4z4 | 
[V:3] z8 | 
[V:4] A8 | 
[V:5] A,,8 | 
[V:1] c6c2 | 
[V:2] e4e4- | 
[V:3] z8 | 
[V:4] z4E4 | 
[V:5] A,,4C,4- | 
[V:1] c4G2G2 | 
[V:2] e2e2e2e2 | 
[V:3] z8 | 
[V:4] G6G2 | 
[V:5] C,2C,2C,4 | 
[V:1] G4d4 | 
[V:2] e2d3cBA | 
[V:3] z8 | 
[V:4] G4G2G2 | 
[V:5] G,,6G,,2 | 
[V:1] D2D2F4 | 
[V:2] B4A2A2 | 
[V:3] z8 | 
[V:4] G4F3G | 
[V:5] G,,4D,4 | 
[V:1] E8 | 
[V:2] cBcdefg2- | 
[V:3] z8 | 
[V:4] A4z4 | 
[V:5] z2A,,2C,D,E,F, | 
[V:1] z4A4 | 
[V:2] gfe4d2 | 
[V:3] z8 | 
[V:4] z4z2A2 | 
[V:5] G,2A,2F,4 | 
[V:1] G2c4BA | 
[V:2] e8 | 
[V:3] z8 | 
[V:4] cBcdefg2- | 
[V:5] E,2A,,2C,D,E,F, | 
[V:1] B2c4BA | 
[V:2] z8 | 
[V:3] z8 | 
[V:4] gfe4d2 | 
[V:5] G,2A,2F,4 | 
[V:1] G8- | 
[V:2] e6e2 | 
[V:3] z8 | 
[V:4] e4z2E2 | 
[V:5] E,4z4 | 
[V:1] G8 | 
[V:2] e4e4 | 
[V:3] B3BB2B2 | 
[V:4] G2E2G2E2 | 
[V:5] E,3E,E,2E,2 | 
[V:1] z8 | 
[V:2] e2e2e4 | 
[V:3] B2B2c4 | 
[V:4] G4A4 | 
[V:5] E,2E,2A,,4 | 
[V:1] z4G4 | 
[V:2] e8 | 
[V:3] B8 | 
[V:4] G4z2e2 | 
[V:5] E,8 | 
[V:1] G2G2A2B2 | 
[V:2] z8 | 
[V:3] z8 | 
[V:4] e2e2f2d2 | 
[V:5] z8 | 
[V:1] c2A2B2c2- | 
[V:2] z8 | 
[V:3] z8 | 
[V:4] e2f2d2e2- | 
[V:5] z8 | 
[V:1] cBA4^G2 | 
[V:2] z8 | 
[V:3] z8 | 
[V:4] edc2B4 | 
[V:5] z8 | 
[V:1] A8- | 
[V:2] z8 | 
[V:3] z8 | 
[V:4] A4z4 | 
[V:5] z4F,4- | 
[V:1] A8 | 
[V:2] f3ff2f2 | 
[V:3] c3cc2c2 | 
[V:4] A3AA2A2 | 
[V:5] F,2F,2F,2F,2 | 
[V:1] z8 | 
[V:2] f2f2f4- | 
[V:3] c2c2d4 | 
[V:4] A2A2A4- | 
[V:5] F,2F,2F,4- | 
[V:1] z2c2c3c | 
[V:2] f4e4 | 
[V:3] c8 | 
[V:4] A4G4 | 
[V:5] F,4C,4 | 
[V:1] B4z2B2 | 
[V:2] z2e2e3e | 
[V:3] z8 | 
[V:4] z8 | 
[V:5] z8 | 
[V:1] c2B2A2G2 | 
[V:2] e2e2f2e2 | 
[V:3] z8 | 
[V:4] z8 | 
[V:5] z8 | 
[V:1] A4B3G | 
[V:2] d2c2d4 | 
[V:3] z8 | 
[V:4] z4z2G2 | 
[V:5] z8 | 
[V:1] G8 | 
[V:2] e8 | 
[V:3] z8 | 
[V:4] c3cB4 | 
[V:5] z2E,2E,3E, | 
[V:1] z8 | 
[V:2] z8 | 
[V:3] z8 | 
[V:4] z2B2c2B2 | 
[V:5] E,2E,2E,2E,2 | 
[V:1] z8 | 
[V:2] z8 | 
[V:3] z8 | 
[V:4] A2d3^c^cB | 
[V:5] F,3D,E,4 | 
[V:1] z2D2F2D2 | 
[V:2] d2f2d2f2 | 
[V:3] z8 | 
[V:4] d8 | 
[V:5] D,8 | 
[V:1] F3GA2_B2 | 
[V:2] d2f3ed2- | 
[V:3] d3dd2d2 | 
[V:4] z8 | 
[V:5] z8 | 
[V:1] A2d3^ccB | 
[V:2] d2cBA4 | 
[V:3] d2d2e4 | 
[V:4] z8 | 
[V:5] z8 | 
[V:1] d8 | 
[V:2] z4A4- | 
[V:3] d8 | 
[V:4] z8 | 
[V:5] D,6D,2 | 
[V:1] z8 | 
[V:2] A2A2A4 | 
[V:3] z8 | 
[V:4] z8 | 
[V:5] D,4F,4 | 
[V:1] z8 | 
[V:2] c4B2c2 | 
[V:3] z8 | 
[V:4] z8 | 
[V:5] E,2F,2G,2E,2 | 
[V:1] z4A4- | 
[V:2] d2B2A4 | 
[V:3] z8 | 
[V:4] d6d2 | 
[V:5] D,8 | 
[V:1] A2A2A4 | 
[V:2] z8 | 
[V:3] z8 | 
[V:4] d4f4 | 
[V:5] z8 | 
[V:1] c4B2c2 | 
[V:2] z8 | 
[V:3] z8 | 
[V:4] e2f2g2e2 | 
[V:5] z8 | 
[V:1] d2B2A4 | 
[V:2] f6f2 | 
[V:3] z8 | 
[V:4] d4z2c2- | 
[V:5] z4F,4- | 
[V:1] A2A2A4 | 
[V:2] f4f4 | 
[V:3] z8 | 
[V:4] c2c2c4 | 
[V:5] F,2F,2F,4 | 
[V:1] G4z4 | 
[V:2] e4d2c2- | 
[V:3] z8 | 
[V:4] c2B2A2G2- | 
[V:5] C,2G,2F,2E,2- | 
[V:1] z8 | 
[V:2] c2BA^GAB^G | 
[V:3] z8 | 
[V:4] G2FED4 | 
[V:5] E,2D,C,B,,4 | 
[V:1] z2c2B2A2- | 
[V:2] A4z4 | 
[V:3] z8 | 
[V:4] E2e2e2f2- | 
[V:5] A,,4z4 | 
[V:1] A2GFE4 | 
[V:2] z8 | 
[V:3] z8 | 
[V:4] f2ed^cde^c | 
[V:5] z8 | 
[V:1] D4z2A2 | 
[V:2] z8 | 
[V:3] z8 | 
[V:4] d8 | 
[V:5] z4z2D,2 | 
[V:1] A2A2A4 | 
[V:2] z2A2A2A2 | 
[V:3] z8 | 
[V:4] z2d2c2d2 | 
[V:5] D,2D,2F,4 | 
[V:1] G2E2F2G2 | 
[V:2] c4B2G2 | 
[V:3] z8 | 
[V:4] e4d2B2 | 
[V:5] E,2C,2D,2E,2 | 
[V:1] E2G2G2G2 | 
[V:2] A2B2E2B2 | 
[V:3] z8 | 
[V:4] c2B2G4 | 
[V:5] A,,2E,2E,2E,2 | 
[V:1] G2DEFGA2- | 
[V:2] B2B2d3c | 
[V:3] z8 | 
[V:4] z2d2d2d2 | 
[V:5] G,3F,D,3E, | 
[V:1] ABc3BG2 | 
[V:2] A3Bcde2- | 
[V:3] z8 | 
[V:4] c6B2 | 
[V:5] F,G,A,3G,E,2 | 
[V:1] A4G4 | 
[V:2] eddce4 | 
[V:3] z8 | 
[V:4] A4B4 | 
[V:5] F,4E,4 | 
[V:1] G3GG2G2 | 
[V:2] E3EE2E2 | 
[V:3] e3ee2e2 | 
[V:4] c3cc2c2 | 
[V:5] C,3C,C,2C,2 | 
[V:1] G2c2A3B | 
[V:2] G2A2F3G | 
[V:3] e2e2f4 | 
[V:4] c2c2d4 | 
[V:5] C,2A,,2D,4 | 
[V:1] c4c2c2 | 
[V:2] A4A2A2 | 
[V:3] e8- | 
[V:4] c4A2c2 | 
[V:5] A,,8 | 
[V:1] c2B2A4 | 
[V:2] A2G2A4 | 
[V:3] e8- | 
[V:4] A2B2c4 | 
[V:5] z8 | 
[V:1] G8- | 
[V:2] E8- | 
[V:3] e8- | 
[V:4] B8- | 
[V:5] z8 | 
[V:1] G8 ||  
[V:2] E8 ||  
[V:3] e8 ||  
[V:4] B8 ||  
[V:5] E,8 ||  
[V:1] [M:2/1]z8 | 
[V:2] [M:2/1]G4G2G2 | 
[V:3] [M:2/1]z8 | 
[V:4] [M:2/1]z8 | 
[V:5] [M:2/1]z8 | 
[V:1] G4G2G2 | 
[V:2] G2G2G2G2 | 
[V:3] z8 | 
[V:4] z8 | 
[V:5] z8 | 
[V:1] G2G2G2G2 | 
[V:2] G4G4 | 
[V:3] z8 | 
[V:4] z8 | 
[V:5] C,4C,2C,2 | 
[V:1] G4G4 | 
[V:2] G6E2 | 
[V:3] z8 | 
[V:4] c4c2c2 | 
[V:5] C,2C,2C,2C,2 | 
[V:1] G6E2 | 
[V:2] E8 | 
[V:3] z8 | 
[V:4] c2c2c2c2 | 
[V:5] C,4C,4 | 
[V:1] E8 | 
[V:2] z8 | 
[V:3] z8 | 
[V:4] c4c4 | 
[V:5] C,6A,,2 | 
[V:1] c6c2 | 
[V:2] z4c4- | 
[V:3] z8 | 
[V:4] c6A2 | 
[V:5] A,,8 | 
[V:1] c4c2c2 | 
[V:2] c2c2c4 | 
[V:3] z8 | 
[V:4] A8 | 
[V:5] F,6F,2 | 
[V:1] c2c2c4 | 
[V:2] c2c2c2c2 | 
[V:3] z8 | 
[V:4] f6f2 | 
[V:5] F,4F,2F,2 | 
[V:1] A8 | 
[V:2] c4A4 | 
[V:3] z8 | 
[V:4] f4f2f2 | 
[V:5] F,2F,2F,4 | 
[V:1] z4A4 | 
[V:2] A4d4- | 
[V:3] z8 | 
[V:4] f2f2f4 | 
[V:5] D,8 | 
[V:1] A3GA2B2- | 
[V:2] d2d3cBA | 
[V:3] z8 | 
[V:4] d4f4 | 
[V:5] z4D,4 | 
[V:1] BAA4GF | 
[V:2] G2A2B4 | 
[V:3] z8 | 
[V:4] e2d2e4- | 
[V:5] E,2F,2E,4 | 
[V:1] G8 | 
[V:2] E4g4- | 
[V:3] e6e2 | 
[V:4] e2c2c4 | 
[V:5] C,8 | 
[V:1] z8 | 
[V:2] g2f2e2d2 | 
[V:3] e4e4 | 
[V:4] g6f2 | 
[V:5] z4C4- | 
[V:1] z8 | 
[V:2] c2g3fe2 | 
[V:3] e4e4 | 
[V:4] e2d2c2B2 | 
[V:5] C2B,2A,2G,2 | 
[V:1] z8 | 
[V:2] dcc4B2 | 
[V:3] f8 | 
[V:4] A2G2F4 | 
[V:5] F,2E,2D,4 | 
[V:1] z8 | 
[V:2] c8 | 
[V:3] e8- | 
[V:4] G8 | 
[V:5] C,8 | 
[V:1] z4c4- | 
[V:2] z8 | 
[V:3] e8 | 
[V:4] c6B2 | 
[V:5] z8 | 
[V:1] c2B2A2G2 | 
[V:2] z8 | 
[V:3] z8 | 
[V:4] A2G2c4 | 
[V:5] z8 | 
[V:1] F2E2D4 | 
[V:2] z8 | 
[V:3] z8 | 
[V:4] d2c2f4 | 
[V:5] z8 | 
[V:1] C8 | 
[V:2] g6f2 | 
[V:3] z8 | 
[V:4] e8 | 
[V:5] z4C4- | 
[V:1] z8 | 
[V:2] e2d2c2d2- | 
[V:3] z8 | 
[V:4] z8 | 
[V:5] C2B,2A,2G,2 | 
[V:1] z8 | 
[V:2] d2c2f4 | 
[V:3] z8 | 
[V:4] z8 | 
[V:5] F,2E,2D,4 | 
[V:1] z4c4- | 
[V:2] e8 | 
[V:3] z8 | 
[V:4] c6B2 | 
[V:5] C,8 | 
[V:1] c2B2A2G2 | 
[V:2] z8 | 
[V:3] z8 | 
[V:4] A2G2c4 | 
[V:5] z8 | 
[V:1] F2E2D4 | 
[V:2] z8 | 
[V:3] z8 | 
[V:4] d2c2f4 | 
[V:5] z8 | 
[V:1] C8 | 
[V:2] g6f2 | 
[V:3] z8 | 
[V:4] e8 | 
[V:5] z4C4- | 
[V:1] z8 | 
[V:2] e2d2c2d2- | 
[V:3] z8 | 
[V:4] z8 | 
[V:5] C2B,2A,2G,2 | 
[V:1] z8 | 
[V:2] d2c2f4 | 
[V:3] z8 | 
[V:4] z8 | 
[V:5] F,2E,2D,4 | 
[V:1] G6G2 | 
[V:2] e8 | 
[V:3] z8 | 
[V:4] z4c4- | 
[V:5] C,8 | 
[V:1] G2G2A4 | 
[V:2] z8 | 
[V:3] z8 | 
[V:4] c2c2c2c2 | 
[V:5] z8 | 
[V:1] F3DD4 | 
[V:2] d6d2 | 
[V:3] z8 | 
[V:4] d4B3G | 
[V:5] z4G,4- | 
[V:1] z8 | 
[V:2] d2d2e4 | 
[V:3] z8 | 
[V:4] G4z4 | 
[V:5] G,2G,2G,2G,2 | 
[V:1] z8 | 
[V:2] c3AA4 | 
[V:3] z8 | 
[V:4] z8 | 
[V:5] A,4F,3D, | 
[V:1] z2A2B3A | 
[V:2] z8 | 
[V:3] z8 | 
[V:4] z2d2d3c | 
[V:5] D,4z4 | 
[V:1] G2^F2G4 | 
[V:2] z2d2c3B | 
[V:3] z8 | 
[V:4] B2A2G4 | 
[V:5] z2D,2E,3D, | 
[V:1] z4z2c2 | 
[V:2] A2^G2A4- | 
[V:3] z8 | 
[V:4] z4z2e2 | 
[V:5] C,2B,,2A,,4- | 
[V:1] c3BA2^G2 | 
[V:2] A4z4 | 
[V:3] z8 | 
[V:4] e3dc2B2 | 
[V:5] A,,4z4 | 
[V:1] A8 | 
[V:2] z2e2f3e | 
[V:3] z8 | 
[V:4] A4z4 | 
[V:5] z2A,2A,3G, | 
[V:1] z8 | 
[V:2] d2^c2d2e2 | 
[V:3] z8 | 
[V:4] z4z2c2 | 
[V:5] F,2E,2D,2A,2 | 
[V:1] z8 | 
[V:2] f3ed2^c2 | 
[V:3] z8 | 
[V:4] c3BA2G2 | 
[V:5] A,3G,F,2E,2 | 
[V:1] z4d4- | 
[V:2] d4z4 | 
[V:3] d6d2 | 
[V:4] A4z4 | 
[V:5] D,8 | 
[V:1] d2d2d2d2 | 
[V:2] B6B2 | 
[V:3] d4d4 | 
[V:4] G6G2 | 
[V:5] z4G,4- | 
[V:1] d2d2B3G | 
[V:2] B4B4 | 
[V:3] d4d4 | 
[V:4] G4G4 | 
[V:5] G,2G,2G,2G,2 | 
[V:1] G8 | 
[V:2] B2B2c4 | 
[V:3] e8 | 
[V:4] G2G2E3F | 
[V:5] E,2E,2C,4 | 
[V:1] z8 | 
[V:2] B8 | 
[V:3] d8- | 
[V:4] G8- | 
[V:5] G,,8- | 
[V:1] G6A2 | 
[V:2] z4G4- | 
[V:3] d8 | 
[V:4] G8 | 
[V:5] G,,8 | 
[V:1] B2c2d2GA | 
[V:2] G2A2B2c2 | 
[V:3] z8 | 
[V:4] z8 | 
[V:5] z8 | 
[V:1] Bcd3^ccB | 
[V:2] d3fe4 | 
[V:3] z8 | 
[V:4] z8 | 
[V:5] z8 | 
[V:1] d8 | 
[V:2] d8 | 
[V:3] z8 | 
[V:4] G6A2 | 
[V:5] z4G,,4- | 
[V:1] z8 | 
[V:2] z8 | 
[V:3] z8 | 
[V:4] B2c2d2GA | 
[V:5] G,,2A,,2B,,2C,2 | 
[V:1] z8 | 
[V:2] z8 | 
[V:3] z8 | 
[V:4] Bcd4^c2 | 
[V:5] D,3F,E,4 | 
[V:1] D6E2 | 
[V:2] z4D4- | 
[V:3] z8 | 
[V:4] d8 | 
[V:5] D,8 | 
[V:1] F2G2A2DE | 
[V:2] D2E2F2G2 | 
[V:3] z8 | 
[V:4] z8 | 
[V:5] z8 | 
[V:1] FGA3^GG^F | 
[V:2] A2c2B4 | 
[V:3] z8 | 
[V:4] z8 | 
[V:5] z8 | 
[V:1] A8 | 
[V:2] A8 | 
[V:3] z8 | 
[V:4] A6B2 | 
[V:5] z4A,,4- | 
[V:1] z8 | 
[V:2] z8 | 
[V:3] z8 | 
[V:4] c2d2e2AB | 
[V:5] A,,2B,,2C,2D,2 | 
[V:1] z8 | 
[V:2] z8 | 
[V:3] z8 | 
[V:4] cde3ddc | 
[V:5] E,2G,2F,4 | 
[V:1] z2E2G4- | 
[V:2] z4E4 | 
[V:3] z8 | 
[V:4] e8 | 
[V:5] E,8 | 
[V:1] G2A2B2E2 | 
[V:2] G6A2 | 
[V:3] z8 | 
[V:4] z8 | 
[V:5] z8 | 
[V:1] G2G2G2G2- | 
[V:2] B2E2B2c2 | 
[V:3] z8 | 
[V:4] z8 | 
[V:5] z8 | 
[V:1] G2FEF4 | 
[V:2] B2e3ddc | 
[V:3] z8 | 
[V:4] z8 | 
[V:5] z8 | 
[V:1] E8 | 
[V:2] e8 | 
[V:3] z8 | 
[V:4] z2A2c4- | 
[V:5] z4A,,4 | 
[V:1] z8 | 
[V:2] z8 | 
[V:3] z8 | 
[V:4] c2d2e2A2 | 
[V:5] C,6D,2 | 
[V:1] z8 | 
[V:2] z8 | 
[V:3] z8 | 
[V:4] c2c2c2c2- | 
[V:5] E,2A,,2E,2F,2 | 
[V:1] z8 | 
[V:2] z8 | 
[V:3] z8 | 
[V:4] c2BAB4 | 
[V:5] E,2A,4G,F, | 
[V:1] z8 | 
[V:2] z4B4- | 
[V:3] z8 | 
[V:4] z4G4- | 
[V:5] G,4z2E,2- | 
[V:1] z8 | 
[V:2] B2B2c2B2- | 
[V:3] z8 | 
[V:4] G2G2G2F2 | 
[V:5] E,2E,2E,2D,2 | 
[V:1] z8 | 
[V:2] BAA4^G2 | 
[V:3] z8 | 
[V:4] E4D4 | 
[V:5] C,4B,,4 | 
[V:1] z4c4- | 
[V:2] A8- | 
[V:3] z8 | 
[V:4] E4e4- | 
[V:5] A,,8 | 
[V:1] c2B2A2G2 | 
[V:2] A8 | 
[V:3] z8 | 
[V:4] e2e2f2e2- | 
[V:5] z8 | 
[V:1] F4E4 | 
[V:2] z8 | 
[V:3] z8 | 
[V:4] edd4^c2 | 
[V:5] z8 | 
[V:1] D8 | 
[V:2] z4B4- | 
[V:3] z8 | 
[V:4] d4z2d2- | 
[V:5] z4G,4- | 
[V:1] z8 | 
[V:2] B2A2G2F2 | 
[V:3] z8 | 
[V:4] d2d2c2B2- | 
[V:5] G,2F,2E,2D,2 | 
[V:1] z8 | 
[V:2] E4D4 | 
[V:3] z8 | 
[V:4] BAA4^G2 | 
[V:5] C,4B,,4 | 
[V:1] z8 | 
[V:2] E4e4- | 
[V:3] c6c2 | 
[V:4] A8 | 
[V:5] A,,8 | 
[V:1] z8 | 
[V:2] e2d2c2B2 | 
[V:3] c4c4 | 
[V:4] e6d2 | 
[V:5] z4A,4- | 
[V:1] z8 | 
[V:2] A2e3dc2 | 
[V:3] c4c4 | 
[V:4] c2B2A2G2 | 
[V:5] A,2G,2F,2E,2 | 
[V:1] z8 | 
[V:2] BAA4^G2 | 
[V:3] d8 | 
[V:4] F2E2D4 | 
[V:5] D,2C,2B,,4 | 
[V:1] z8 | 
[V:2] A8 | 
[V:3] c8- | 
[V:4] E8 | 
[V:5] A,,8- | 
[V:1] z4E4- | 
[V:2] z8 | 
[V:3] c8 | 
[V:4] A6B2 | 
[V:5] A,,8 | 
[V:1] E2F2G2E2 | 
[V:2] z8 | 
[V:3] z8 | 
[V:4] c2A2B2c2 | 
[V:5] z8 | 
[V:1] F2G2A4 | 
[V:2] z4A4- | 
[V:3] z8 | 
[V:4] d4z4 | 
[V:5] D,6E,2 | 
[V:1] z8 | 
[V:2] A2B2c2A2 | 
[V:3] z8 | 
[V:4] z8 | 
[V:5] F,2D,2E,2F,2 | 
[V:1] z4A4- | 
[V:2] B2c2d4 | 
[V:3] z8 | 
[V:4] d6e2 | 
[V:5] G,3F,D,4 | 
[V:1] A2B2c2A2 | 
[V:2] z8 | 
[V:3] z8 | 
[V:4] f2d2e2f2 | 
[V:5] z8 | 
[V:1] B2c2d2B2 | 
[V:2] z8 | 
[V:3] z8 | 
[V:4] g2e2f2g2- | 
[V:5] z8 | 
[V:1] d2c4BA | 
[V:2] z8 | 
[V:3] z8 | 
[V:4] gfede4- | 
[V:5] z8 | 
[V:1] G8 | 
[V:2] z4B4- | 
[V:3] z8 | 
[V:4] e4z4 | 
[V:5] E,6F,2 | 
[V:1] z8 | 
[V:2] B2c2d2B2 | 
[V:3] z8 | 
[V:4] z8 | 
[V:5] G,2E,2F,2G,2 | 
[V:1] z8 | 
[V:2] c2d2e2c2 | 
[V:3] z8 | 
[V:4] z8 | 
[V:5] A,2F,2E,4- | 
[V:1] G4G2G2 | 
[V:2] B4c4 | 
[V:3] z8 | 
[V:4] z4e4 | 
[V:5] E,4C,3D, | 
[V:1] G3AB2c2- | 
[V:2] B4z4 | 
[V:3] z8 | 
[V:4] e2e2e4 | 
[V:5] E,8 | 
[V:1] c2BAc4 | 
[V:2] z8 | 
[V:3] z8 | 
[V:4] f4e2c2 | 
[V:5] z8 | 
[V:1] B2G2A2B2 | 
[V:2] z8 | 
[V:3] z8 | 
[V:4] d2e2f2d2 | 
[V:5] z8 | 
[V:1] c4A4 | 
[V:2] z8 | 
[V:3] z8 | 
[V:4] e2c4BA | 
[V:5] z8 | 
[V:1] B8 | 
[V:2] z4d4- | 
[V:3] B6B2 | 
[V:4] G8 | 
[V:5] z8 | 
[V:1] z8 | 
[V:2] d2c2B2A2 | 
[V:3] B4B4 | 
[V:4] d6c2 | 
[V:5] z4G,4- | 
[V:1] G3GG2G2 | 
[V:2] G2d3cB2 | 
[V:3] B4B4 | 
[V:4] B2A2G2F2 | 
[V:5] G,2F,2E,2D,2 | 
[V:1] A2B2c2A2 | 
[V:2] AGG4^F2 | 
[V:3] c8 | 
[V:4] E2D2C4 | 
[V:5] C,2B,,2A,,4 | 
[V:1] B2G4FE | 
[V:2] G8- | 
[V:3] B8- | 
[V:4] D2G2E2G2- | 
[V:5] G,,8- | 
[V:1] D8 | 
[V:2] G8 | 
[V:3] B8 | 
[V:4] G2FED4 | 
[V:5] G,,8 | 
[V:1] z8 | 
[V:2] z8 | 
[V:3] z8 | 
[V:4] CDEFG3A | 
[V:5] z2G,2E,2G,2- | 
[V:1] z8 | 
[V:2] z8 | 
[V:3] z8 | 
[V:4] B2c4B2 | 
[V:5] G,2F,E,D,4 | 
[V:1] z2G2E2G2- | 
[V:2] z8 | 
[V:3] z8 | 
[V:4] c4C4 | 
[V:5] C,D,E,F,G,3A, | 
[V:1] G2FED4 | 
[V:2] z8 | 
[V:3] z8 | 
[V:4] G8 | 
[V:5] B,2C4B,2 | 
[V:1] CDEFG3A | 
[V:2] z2g2e2g2- | 
[V:3] z8 | 
[V:4] z8 | 
[V:5] C4C,4 | 
[V:1] B2c4B2 | 
[V:2] g2fed4 | 
[V:3] z8 | 
[V:4] z8 | 
[V:5] G,8 | 
[V:1] c4c4- | 
[V:2] c4c4- | 
[V:3] z8 | 
[V:4] z4e4- | 
[V:5] z4C,4- | 
[V:1] c2c2c2c2 | 
[V:2] c2c2c2c2 | 
[V:3] z8 | 
[V:4] e2e2e2e2 | 
[V:5] C,2C,2C,2C,2 | 
[V:1] B4B4 | 
[V:2] d4e4 | 
[V:3] z8 | 
[V:4] d4g4 | 
[V:5] G,4E,4 | 
[V:1] c6c2 | 
[V:2] c6c2 | 
[V:3] z8 | 
[V:4] e6f2 | 
[V:5] A,6A,2 | 
[V:1] B4B4 | 
[V:2] d4e4 | 
[V:3] z8 | 
[V:4] g4g4 | 
[V:5] G,4E,4 | 
[V:1] c2c2c4 | 
[V:2] c2c2c4 | 
[V:3] z8 | 
[V:4] e2e2f4 | 
[V:5] A,2A,2A,4 | 
[V:1] B4c4 | 
[V:2] d2e2c2A2 | 
[V:3] z8 | 
[V:4] g4z2c2 | 
[V:5] G,2E,2A,4 | 
[V:1] B2G2A4 | 
[V:2] B2c2A4 | 
[V:3] z8 | 
[V:4] d2e2c3d | 
[V:5] G,2E,2F,4 | 
[V:1] G4c4 | 
[V:2] B4z2A2 | 
[V:3] z8 | 
[V:4] e4z2c2 | 
[V:5] E,4A,4 | 
[V:1] B2G2A4 | 
[V:2] B2c2A4 | 
[V:3] z8 | 
[V:4] d2e3ddc | 
[V:5] G,2E,2F,4 | 
[V:1] G4c4 | 
[V:2] B4z2c2 | 
[V:3] z8 | 
[V:4] e4z2A2 | 
[V:5] E,4A,4 | 
[V:1] B2G2A4 | 
[V:2] d2e2c3d | 
[V:3] z8 | 
[V:4] B2c2A4 | 
[V:5] G,2E,2F,4 | 
[V:1] G2E2A4 | 
[V:2] e4A4 | 
[V:3] z8 | 
[V:4] B2c4d2 | 
[V:5] E,2C,2F,4 | 
[V:1] G6G2 | 
[V:2] c4B4- | 
[V:3] z8 | 
[V:4] e6e2 | 
[V:5] E,6E,2 | 
[V:1] G8- | 
[V:2] B2B2B2c2- | 
[V:3] z8 | 
[V:4] e8- | 
[V:5] E,8- | 
[V:1] G8 | 
[V:2] c2BAB4 | 
[V:3] z8 | 
[V:4] e8 | 
[V:5] E,8 | 
[V:1] z4c4- | 
[V:2] c6d2 | 
[V:3] A6A2 | 
[V:4] z8 | 
[V:5] z4A,4- | 
[V:1] c2B2A2G2 | 
[V:2] e4A4 | 
[V:3] A4A4 | 
[V:4] c3cc2c2 | 
[V:5] A,2G,2F,2E,2 | 
[V:1] F2E2A4 | 
[V:2] z2c4F2 | 
[V:3] A4A4 | 
[V:4] d2e2c3d | 
[V:5] D,2C,2F,4 | 
[V:1] G8 | 
[V:2] G3EE4 | 
[V:3] B8 | 
[V:4] e8 | 
[V:5] E,8 | 
[V:1] z4c4- | 
[V:2] c6d2 | 
[V:3] A8- | 
[V:4] z8 | 
[V:5] z4A,4- | 
[V:1] c2B2A2G2 | 
[V:2] e4A4 | 
[V:3] A8- | 
[V:4] c3cc2c2 | 
[V:5] A,2G,2F,2E,2 | 
[V:1] F2E2D4 | 
[V:2] z4F3G | 
[V:3] A8- | 
[V:4] d2e2f4 | 
[V:5] D,2C,2D,4 | 
[V:1] C8- | 
[V:2] A2A2A4 | 
[V:3] A8- | 
[V:4] e8- | 
[V:5] A,,8- | 
[V:1] C8 |]  
[V:2] E8 |]  
[V:3] A8 |]  
[V:4] e8 |]  
[V:5] A,,8 |]  



